X:1
T:Grüß Gott, du schöner Maien
T:Grüß Gott, du schöner Maien
T:Volksweise (16. Jh.) 
T:Copyright © 
Z:Copyright ©
L:1/8
Q:1/4=144
M:4/4
K:D
V:1 treble nm="P1"
V:1
 A,2 |"D" D2 E2 F2 G2 | (ABAG) F2"A" E2 |"D" F2 A2"A7" (AG) G2 |"D" F4 z2 A,2 |"D" D2 E2 F2 G2 | %6
w: Grüß|Gott, du schö- ner|Mai- * * * en, da|bist du wie- * drum|hier. Tust|jung und alt er-|
 (ABAG) F2"A" E2 |"D" F2 A2"A7" (AG) G2 |"D" F4 z2 F2 | A2 F2 E2 D2 |"A" (E3 F) E2 F2 | %11
w: freu- * * * en, mit|dei- ner Blu- * men|Zier. Die|lie- ben Vög- lein|al- * le, sie|
"D" A2 F2"E7" E2 D2 |"A" E4 z2 A,2 |"D" D2 E2 F2 G2 | (ABAG) F2"A" E2 |"D" F2 A2"A7" (AG) G2 | %16
w: sin- gen all so|hell, Frau|Nach- ti- gall mit|Schal- * * * le hat|die für- nehms- * te|
"D" F4 z2 |] %17
w: Stell.|

